!!!OTL: Angelus domini ad pastores
**kern
*staff1
=--
*clefC1
*k[b-]
1cc
2cc
2cc
1a
2a
2a
=-
1b-
2b-
2b-
0g
=-
1cc
2cc
2cc
2a
2cc
2b-
2a
=-
1g
1f
1f
1g
=-
0e
=-
!!linebreak:original
2r
2B-
1d
=-
2f
2f
1e
2r
2c
2d
2e
=-
2f
2g
1a
2g
2f
1b-
=-
1a
2g
2f
2e
1f
2e
=-
0f
!!linebreak:original
=-
1f
2a
4a
4a
4g
4f
4e
4g
1f
=-
2r
2f
2e
2d
1f
2r
1r
2a
2g
2f
2e
1f
2e
=-
0f
!!linebreak:original
=-
1a
1a
=-
4a
4a
4a
4a
2a
2cc
1a
1a
=-
1g
1g
2g
4a
4a
4g
4g
4a
4a
=-
4g
4g
4a
4a
4g
4g
2.a
4g
1f
2e
=-
0f
=-=
*-
!!title: @{OTL}, @{GTL}, ed. @{ENC}
!!!pag:
!!!GTL: Hymnbook C
!!!EFL: 
!!!YEM: Creative Commons CC/BY/NC/SA 4.0
!!!ENC: Marcin Konik
!!!END: 2015-0m-dd
!!!EED: Marcin Konik
!!!EEV: 
!!!ONB: Encoded in vim by Marcin Konik
!!!CharacterEncoding: utf-8
!!!RDF**kern: l=long note in original notation
!!!RDF**kern: i=editorial accidental
!!muse2ps: z14jc180F
!!!COM: Anonim
!!!CDT: [?]
!!!TXO: Polish
!!!ODT: 
!!!GTL: Hymnbook C
!!!ARL: Opactwo św. Wojciecha, Staniątki 
!!!voices:	1
